src/assets/svg/logo.svg

<?xml version="1.0" encoding="UTF-8" standalone="no"?>
<!-- Created with Inkscape (http://www.inkscape.org/) -->

<svg
   version="1.1"
   id="svg228"
   width="388"
   height="113"
   viewBox="0 0 388 113"
   sodipodi:docname="Screenshot_from_2025-02-06_23-23-06-removebg-preview.png"
   xmlns:inkscape="http://www.inkscape.org/namespaces/inkscape"
   xmlns:sodipodi="http://sodipodi.sourceforge.net/DTD/sodipodi-0.dtd"
   xmlns="http://www.w3.org/2000/svg"
   xmlns:svg="http://www.w3.org/2000/svg">
  <defs
     id="defs232" />
  <sodipodi:namedview
     id="namedview230"
     pagecolor="#ffffff"
     bordercolor="#000000"
     borderopacity="0.25"
     inkscape:showpageshadow="2"
     inkscape:pageopacity="0.0"
     inkscape:pagecheckerboard="0"
     inkscape:deskcolor="#d1d1d1"
     showgrid="false" />
  <g
     inkscape:groupmode="layer"
     inkscape:label="Image"
     id="g234">
    <path
       style="fill:#135f9c;stroke:none"
       d="M0.963028 111.204V1.66966H37.682V16.0461H17.6421V47.9106H36.6862V61.9759H17.6421V96.8278H38.4288V111.204H0.963028ZM56.4771 111.204V16.1083H43.6566V1.66966H85.4166V16.1083H73.094V111.204H56.4771ZM94.8142 111.204V1.66966H132.404V16.1705H111.493V45.2968H130.911V59.8599H111.493V111.204H94.8142ZM164.082 112.449C159.518 112.449 155.701 111.744 152.631 110.333C149.602 108.881 147.196 106.785 145.412 104.047C143.669 101.267 142.424 97.9065 141.678 93.9649C140.931 89.9819 140.557 85.4594 140.557 80.3976V70.6266H156.365V81.6423C156.365 87.5339 156.863 91.7659 157.859 94.3383C158.855 96.9107 160.825 98.1969 163.771 98.1969C165.763 98.1969 167.256 97.7405 168.252 96.8278C169.289 95.8735 169.974 94.3798 170.306 92.3468C170.679 90.2723 170.866 87.5754 170.866 84.2562C170.866 80.1486 169.995 76.3938 168.252 72.9916C166.551 69.5893 163.958 66.0627 160.473 62.4115L152.382 54.072C150.142 51.7485 148.109 49.2798 146.283 46.6659C144.499 44.052 143.067 41.1477 141.989 37.953C140.951 34.7167 140.433 31.1071 140.433 27.124C140.433 21.3568 141.138 16.4817 142.549 12.4986C143.96 8.51556 146.345 5.50751 149.706 3.47449C153.067 1.39997 157.672 0.362709 163.522 0.362709C167.92 0.362709 171.53 1.0473 174.351 2.41648C177.214 3.74417 179.434 5.71496 181.01 8.32886C182.629 10.9013 183.769 14.0545 184.433 17.7887C185.097 21.4813 185.429 25.7133 185.429 30.4847V37.2684H170.057V29.4267C170.057 26.1075 169.87 23.3484 169.497 21.1494C169.165 18.9504 168.522 17.3115 167.568 16.2328C166.613 15.1125 165.223 14.5524 163.398 14.5524C161.655 14.5524 160.244 14.9466 159.166 15.7349C158.087 16.4817 157.299 17.6642 156.801 19.2823C156.344 20.8589 156.116 22.9127 156.116 25.4436C156.116 27.7256 156.407 29.6964 156.987 31.356C157.568 33.0156 158.46 34.613 159.664 36.1481C160.867 37.6833 162.36 39.4051 164.145 41.3137L173.169 51.0847C177.484 55.7316 180.844 60.5652 183.251 65.5855C185.657 70.6059 186.861 76.2071 186.861 82.3891C186.861 88.9446 186.155 94.4628 184.745 98.9438C183.334 103.383 180.969 106.744 177.65 109.026C174.33 111.308 169.808 112.449 164.082 112.449ZM206.651 111.204L193.271 1.66966H208.207L216.236 79.713L226.442 1.66966H239.885L250.154 79.713L257.249 1.66966H272.248L259.676 111.204H243.059L233.35 38.3886L223.268 111.204H206.651ZM275.546 111.204L291.167 1.66966H313.199L329.815 111.204H314.257L311.643 91.6622H293.968L291.603 111.204H275.546ZM295.586 78.2816H309.9L302.556 23.2654H302.307L295.586 78.2816ZM339.773 111.204V1.66966H364.916C369.273 1.66966 372.882 2.3335 375.745 3.66119C378.65 4.98888 380.932 6.95967 382.591 9.57357C384.251 12.1875 385.433 15.4237 386.139 19.2823C386.844 23.0994 387.197 27.5181 387.197 32.5385V34.8412C387.197 41.8945 386.574 47.9106 385.33 52.8895C384.126 57.8268 381.948 61.5817 378.795 64.1541C375.642 66.7265 371.202 68.0127 365.476 68.0127H356.452V111.204H339.773ZM356.452 54.2587H362.178C364.626 54.2587 366.451 53.6363 367.655 52.3916C368.858 51.1469 369.646 49.0931 370.02 46.2303C370.435 43.326 370.642 39.4674 370.642 34.6545V32.5385C370.601 26.6054 370.082 22.1244 369.086 19.0956C368.09 16.0253 365.829 14.4902 362.302 14.4902H356.452V54.2587Z"
       id="path240" />
  </g>
</svg>

<svg xmlns="http://www.w3.org/2000/svg" width="388" height="113"><path d="M.963 111.204V1.67h36.719v14.376h-20.04v31.865h19.044v14.065H17.642v34.852H38.43v14.376H.963Zm55.514 0V16.108h-12.82V1.67h41.76v14.438H73.094v95.096H56.477Zm38.337 0V1.67h37.59v14.5h-20.911v29.127h19.418V59.86h-19.418v51.344H94.814Zm69.268 1.245c-4.564 0-8.381-.705-11.451-2.116-3.029-1.452-5.435-3.548-7.219-6.286-1.743-2.78-2.988-6.14-3.734-10.082-.747-3.983-1.121-8.506-1.121-13.567v-9.771h15.808v11.015c0 5.892.498 10.124 1.494 12.696.996 2.573 2.966 3.859 5.912 3.859 1.992 0 3.485-.457 4.481-1.37 1.037-.953 1.722-2.447 2.054-4.48.373-2.075.56-4.772.56-8.09 0-4.108-.871-7.863-2.614-11.265-1.701-3.403-4.294-6.93-7.779-10.58l-8.091-8.34a60.95 60.95 0 0 1-6.099-7.406c-1.784-2.614-3.216-5.518-4.294-8.713-1.038-3.236-1.556-6.846-1.556-10.829 0-5.767.705-10.642 2.116-14.625 1.411-3.983 3.796-6.991 7.157-9.025C153.067 1.4 157.672.363 163.522.363c4.398 0 8.008.684 10.829 2.053 2.863 1.328 5.083 3.299 6.659 5.913 1.619 2.572 2.759 5.726 3.423 9.46.664 3.692.996 7.924.996 12.696v6.783h-15.372v-7.841c0-3.32-.187-6.079-.56-8.278-.332-2.199-.975-3.838-1.929-4.916-.955-1.12-2.345-1.68-4.17-1.68-1.743 0-3.154.394-4.232 1.182-1.079.747-1.867 1.93-2.365 3.547-.457 1.577-.685 3.63-.685 6.162 0 2.282.291 4.252.871 5.912.581 1.66 1.473 3.257 2.677 4.792 1.203 1.535 2.696 3.257 4.481 5.166l9.024 9.77c4.315 4.648 7.675 9.481 10.082 14.501 2.406 5.02 3.61 10.622 3.61 16.804 0 6.556-.706 12.074-2.116 16.555-1.411 4.439-3.776 7.8-7.095 10.082-3.32 2.282-7.842 3.423-13.568 3.423Zm42.569-1.245L193.271 1.67h14.936l8.029 78.043L226.442 1.67h13.443l10.269 78.043 7.095-78.043h14.999l-12.572 109.534h-16.617l-9.709-72.815-10.082 72.815h-16.617Zm68.895 0L291.167 1.67h22.032l16.616 109.534h-15.558l-2.614-19.542h-17.675l-2.365 19.542h-16.057Zm20.04-32.922H309.9l-7.344-55.017h-.249l-6.721 55.017Zm44.187 32.922V1.67h25.143c4.357 0 7.966.663 10.829 1.991 2.905 1.328 5.187 3.299 6.846 5.913 1.66 2.614 2.842 5.85 3.548 9.708.705 3.817 1.058 8.236 1.058 13.256v2.303c0 7.053-.623 13.07-1.867 18.048-1.204 4.938-3.382 8.693-6.535 11.265-3.153 2.573-7.593 3.859-13.319 3.859h-9.024v43.191h-16.679Zm16.679-56.945h5.726c2.448 0 4.273-.623 5.477-1.867 1.203-1.245 1.991-3.299 2.365-6.162.415-2.904.622-6.763.622-11.575v-2.117c-.041-5.933-.56-10.414-1.556-13.442-.996-3.07-3.257-4.606-6.784-4.606h-5.85V54.26Z" style="fill:#135f9c;stroke:none"/></svg>
